X: 19225
T: It Be T'n't To Be
R: jig
M: 6/8
K: Gmajor
|:gfg dBG|ABc BGE|gfg ABc|BAG ABd|
gfg dBG|ABc Bcd|gdB ABc|1 BGF G3:|2 BGF G2||
|:D|GBd gfg|gfg ece|gdB GAB|BAG ADC|
B,GG CGG|EGG DGF|Gec BcA|1 BGF G2:|2 BGF G3||

